X:39
T:Willafjord
A:trad. Shetlands
M:4/4
K:D
B2 | A2 F(A A)DFA | B2 G(B B)DGB | A2 F(A A)DFA | EFGA GFED | \
A2 F(A A)DFA | B2 G(B B)DGB | ABcd efge |1 f2 d2 d2 B2 :|2 f2 d2 d2 e2 |: \
f2 d (f f)fdf | geaf gfeg | f2 d(f f)dfd | e2 c(e e)Ace | \
f2 d (f f)fdf | geaf gfed | ABcd efge | f2 d2 d4 :|
